X: 39361
T: Tamerack'er Down
R: reel
M: 4/4
K: Amajor
f|[M:6/4] ecBc AFEF A2 Af|[M:4/4] ecce =g2 fa|[M:6/4] ecBc AFEF A2 Af|[M:4/4] ecBc A/A/A A:|
f|eAce =g2 fa|eAce fBBf|ecce f2 bf|ecBc A/A/A Af|
eAce =g2 fa|eAce fBBf|ecce fgaf|ecBc A/A/A A||

